/* XPM */
static const char *belleville_console[] = {
/* columns rows colors chars-per-pixel */
"96 96 32 1 ",
"  c #0F0D0A",
". c #2D2313",
"X c #512702",
"o c #4A2D1A",
"O c #6F3301",
"+ c #235F16",
"@ c #5B4B2B",
"# c #665E4D",
"$ c #923618",
"% c #C03426",
"& c #904802",
"* c #AA5601",
"= c #B46705",
"- c #DB6B0B",
"; c #CC7001",
": c #8C745D",
"> c #E65D68",
", c #318E1E",
"< c #57A440",
"1 c #EF8F09",
"2 c #E89817",
"3 c #F9B404",
"4 c #DEBF3B",
"5 c #938976",
"6 c #A88E64",
"7 c #417BA9",
"8 c #BEA78E",
"9 c #E7D09C",
"0 c #EAD2A9",
"q c #FAEDCF",
"w c #F4F2EE",
"e c None",
/* pixels */
"eeeeeeeeeeeeeeeeeeeeeeeeeeeeeeeeeeeeeeeeeeeeeeeeeeeeeeeeeeeeeeeeeeeeeeeeeeeeeeeeeeeeeeeeeeeeeeee",
"eeeeeeeeeeeeeeeeeeeeeeeeeeeeeeeeeeeeeeeeeeeeeeeeeeeeeeeeeeeeeeeeeeeeeeeeeeeeeeeeeeeeeeeeeeeeeeee",
"eeeeeeeeeeeeeeeeeeeeeeeeeeeeeeeeeeeeeeeeeeeeeeeeeeeeeeeeeeeeeeeeeeeeeeeeeeeeeeeeeeeeeeeeeeeeeeee",
"eeeeeeeeeeeeeeeeeeeeeeeeeeeeeeeeeeeeeeeeeeeeeeeeeeeeeeeeeeeeeeeeeeeeeeeeeeeeeeeeeeeeeeeeeeeeeeee",
"eeeeeeeeeeeeeeeeeeeeeeeeeeeeeXXXXXXXXeeeeeeeeeeeeeeeeeeeeeeeeeeeeeeeeeeeeeeeeeeeeeeeeeeeeeeeeeee",
"eeeeeeeeeeeeeeeeeeeeeeeeeeeXX&O&OO&&OXXeeeeeeeeeeeeeeeeeeeeeeeeeeeeeeeeeeeeeeeeeeeeeeeeeeeeeeeee",
"eeeeeeeeeeeeeeeeeeeeeeeeeXX&&O&OO&&OOOO8eeeeeeeeeeeeeeeeeeeeeeeeeeeeeeeeeeeeeeeeeeeeeeeeeeeeeeee",
"eeeeeeeeeeeeeeeeeeeeeeeeX&O&O&O&&&&X&&&O.eeeeeeeeeeeeeeeeeeeeeeeeeeeeee9998eeeeeeeeeeeeeeeeeeeee",
"eeeeeeeeeeeeeeeeeeeeeee.&O*O4&&&9&O&&OX&OOeeeeeeeeeeeeeeeeeeeeeeeeeeeewqqq666eeeeeeeeeeeeeeeeeee",
"eeeeeeeeeeeeeeeeeeeeeeeX&O&99O&99O&&&X&OXOOeeeeeeeeeeeeeeeeeeeeeee0088qqqq##666eeeeeeeeeeeeeeeee",
"eeeeeeeeeeeeeeeeeeeeee.&O&O9&&=99O&&OO&&O&&Xeeeeeeeeeeeeeeee5:555#:#w0qqqq@6::66eeeeeeeeeeeeeeee",
"eeeeeeeeeeeeeeeeeeeeee&&&469O&69O&&&X&&OO&X&weeeeeeeeeeeeee ++,,,,, qqqqqq#6666#eeeeeeeeeeeeeeee",
"eeeeeeeeeeeeeeeeeeeeee&O&&9&O&9&X&9XX*&X&&XOXeeeeeeeeeeeeee ,,,,,,++qqqqqq@6666#eeeeeeeeeeeeeeee",
"eeeeeeeeeeeeeeeeeeeee.&&&O&O&&&&&&4X&&&X&X.XXeeeeeeeeeeeeeee, .+,,,,0qqqqq#666:#eeeeeeeeeeeeeeee",
"eeeeeeeeeeeeeeeeeeeeeXX&O&&O&&&X&&&O&&OXO.OX.eeeeeeeeeeeeeew,qq ,,,,8qqqqq#6@ #:eeeeeeeeeeeeeeee",
"eeeeeeeeeeeeeeeeeeeee.&&O&O&&&&X&&O&&OOOX.Ooeeeeeeeeeeeeeeee, .+...,5qqqqq#6 # 6e    eeeeeeeeeee",
"eeeeeeee    eeeeeeeeX&&&O&X&&&OX&&O&OO.O.X.#eeeeeeeeeeeeeeee, qqqqq,@qqqqq#6.  :  .#  eeeeeeeeee",
"eeeeee q..   .eeeeeeXO&X&&X&&&X&&OX&OOX.*X*eeeeeeeeeeeeeeeee .<<0++, qqqqq:.@ . :5  :.eeeeeeeeee",
"eeee .@9..   #eeeeeeXOOX&&X&&&X&&OOOOOO.;-*eeeeeeeeeeeeeeeee ,<<0++, qqqqq: .@ #..   o eeeeeeeee",
"eee0 ..#@@.  @:.eeeeXOOOOO&O&&X&OOOOOOO ; .eeeeeeeeeeeeeeeee ,qqq++,+0qqqq: ......#  o eeeeeeeee",
"eee# ..@      .o#.e.X&OOOOOOOOOOOXOOOOO*1 eeeeeeeeeeeeeeeeeeq,000++,,8qqqq6   .....  @ eeeeeeeee",
"eeee .. #.   ww .@..O&OOOOOOOOOOOXOOOOO;1.&eeeeeeeeeeeeeeeeeq,00040+,5qqqq6    ....    eeeeeeeee",
"eeee    8#.  www .#.&&OOOOOOOO&OOOOOOOX11;2eeeeeeeeeeeeeeeeew,0000q5,.qqqq6    ...     eeeeeeeee",
"eeeew   @5:.  wwww  &OOOOOOOOOOOXOOOOO 11-&eeeeeeeeeeeeeeeeee.,,,,,,, qqqq66  ww ...   eeeeeeeee",
"eeeeew  o #.  wwwww.OOOOOOOOOX&OXOOOOOO111Oeeeeeeeeeeeeeeeeee ,,,,,,, qqqq666:www...  # eeeeeeee",
"eeeeeew  o5o.  wwwww..OOOOOOOXOOXOOOOOO1;.eeeeeeeeeeeeeeeeeee ,,,,,,,#qqqq6666ww .5@.   eeeeeeee",
"eeeeeew  .@5.  #wwwwww88X.XXO.OOXOOOOOO;;&eeeeeeeeeeeeeeeeeee qq92249:qqqq6666ww  ..  # eeeeeeee",
"eeeeeee. ..@ .  wwwwwwwwww ....XXOOOOOX*Oeeeeeeeeeeeeeeeeeeeee       :qqqq66##ww  ..  # eeeeeeee",
"eeeeeee.   o5    wwwwwwwwwwwX&&O...XXXXXeeeeeeeeeeeeeeeeeeeeeeeeeeeee8qqqq#666ww  ..  @ eeeeeeee",
"eeeeeeee  ..#9433333333443wwwO1;***&eeeeeeeeeeeeeeeeeeeeeeeeeeeeeeeee89qq9#  www  ..  @ eeeeeeee",
"eeeeee==&*  .333931;;;=;==&w**XXXXXO$eeeeeeeeeeeeeeeeeeeeeeeeeeeeeeeee     . www  ..  @ eeeeeeee",
"ee;1;;334333 33334;;;;===1;&4244312*=%8eeeeeeeeeeeeeeeeeeeeeeeeeeeeeee     . www  ..  @ eeeeeeee",
"e433339011933&3334;&*====1>>9>>>>>>>2>>Oeeeeeeeeeeeeeeeeeeeeeeeeeeq66$O .  X$Xww  ..  . eeeeeeee",
"e2333333;1111X3334;=11====0>>>>>9>>>>>>$*eeeeeeeeeeeeeeeeeeeeeeeee009X%-%%%$OXww  ..  @ eeeeeeee",
"e333333341;3113333;;*1===>>>%&%>>>>>>>>>;*0eeeeeeeeeeeeeeeeeeeeqqqq00X%%%%$OOX5w  ..  @ 7eeeeeee",
"e333333331;;11O3333;*1;=%>;41111$>>>>>>>o=;;weeeeeeeeeeeeeeeee8qqqqq00%%%%$OO607w77777777weeeeee",
"e233333332;;31O3333;11==%>414221;%8>8>>>$*=;*eeeeeeeeeeeeeeee8q,,,<qqqqq99990867777777777eeeeeee",
"e333333333;;311*334;;;=O%>4292211X>>>>>>%O*;;O**eeeeeeeeeeeeeq,qq8,<,qwqq96009977777777775eeeeee",
"e3333333333;;11O332*O.  %;2229211;$>>>>6>O**=*11*0eeeeeeeeee90qq<,q<80,qq95w0q0777777777766eeeee",
"e*33333331&OX;1;   O&;;;&&112292111>>>>>>%O*O;;1121*eeeeeeeeq,qq,,q<qqqw990%..qq97777776qqq8eeee",
"e6333333OXOOO;115.333333;>112292211%%>>>>>O*O=;;1221&eeeeee8,<<q<,,q,qq98 ,w88 #qqqwwwwq0606eeee",
"e633=OXX*&*==411&X333;;=*&1112292221$%>>>>o ***=;1122O==ee9q<9qq<<qq7q997qq<<059q000000006006eee",
"e8*OO&**===133111X333;O&*&X111299221O%%>>>80X&**=1111*211&q,wq0<<<qqqq8q.8<<<<5qw000000006006eee",
"eeee*;=;443143311O333;&&=*%X;12249221*$%%%>wwww.X;;1 142Owqw,,,,<q%qq9 .  <,05ww9000000006008eee",
"eeee*313333113411=3331=;;&>%&1122992&Xo%%%%wwwwwwXO;X;11O999qq8,<q%ww90#0<86< q000000000060006ee",
"eeee&333&X39133;==3333=&;*>%X111229O&22O%%>wwwwwwwwXwX;;199999qqqqqq9  q<<<<<qq000000000060006ee",
"eeee*333*&X3;33==*3333;&1*%>>%;122*9042222*&wwwwwwwww08:q96#699999q9 w  q.< qq0000000000060006ee",
"eeeee=31;1*3=33*=O3333;;;&o>>%O11;X149992222*&wwwww:6809988q6##69999q#oq.q<qq00000000000060000ee",
"eeeee=334443X33*& 3333*. .$>>>%;1O211129992222=*5q08q8608808868#.:09qwq qq.q000000000000060000ee",
"eeeee=33323O&3*& .13=OXX&&%>>>%O=O11111122992222X8890q8885-- -%#3.089q.5ooqq000009000000060000ee",
"eeeee=333===3   .@ 1111333*%>>>%$o==;;;11111294O2144;1;;2&&@.348 qq 99qq q0000000000000006@@@@ee",
"eeeee*3333O111;=.@&33q4;***%>>>>%$o1;;;-111111=244114921&&3o.333 0q.@99qqw0000000000000006####ee",
"eeeee*33333334111@&3333*&-*%>>>>>%%OX*;;;;;111O2211111=X*X.#@@.O$.w #o99w0000000000000008#####ee",
"eeeeee=33333339112O3333=*-**>>o$@O$$$$%$OX*;;;.=1111111;&@@ @@:5:@5@ ##9q00095:55:88855555####ee",
"eeeeee=3XX.3333911O3333;*=**>>>000>%%%%..O&6&;OX11111121O9qqqqqqqqq@.@##85:555555.55555555####ee",
"eeeeee=OO&3333331;X3333;***%>>>9q00>$o XO&&&$57wO;1111&&O:600000000@@.::855555555.55555555####ee",
"eeeeee&O44411&33;=&3333;&;*>>>>008@X&*&&&&O&&***;;*&;1;O::600000000@#8##855555555o55555555####ee",
"eeeeew.XOX3=6OX3*=&3333=;;*>>>>>% O1111&&**=&XX;1111;.oo::600000000##88#855555555 55555555####ee",
"eeeee.OX3=3&O.X=*= 3333=XXO>>>>&4909942111;****=*X*11-&o@@@:####500qo888855#@#80.#55555555#o.wee",
"eeeeeXOO331XOXX&& o333XXOOO>>>O2222990942111;*****XO11=.###555555555.855o@#55555.#55555555.eeeee",
"eeeee.OO&XXOOXX. ..&OX&&OO$>> 11111112499994111-=O*O*1-O##5555555555.85555555555@#5555o..ooeeeee",
"eeeee.OOOOOOOXX.XO;**&&OO=-%%.111111111112224441=***O*=*######@55555 55555555555oo@@o@.@@@oeeeee",
"eeeeee.O.OOOOXXX O;;**O3;;1*OO111111111111111112X11*.&**OOX.ooo55555.55555555@..@@@@@@.@@@oeeeee",
"eeeeeewOOOOXO&XXXO=3=&333111==X*;--1111111111111O11;X&&*XO .5:#55555.5555#....o@@@@@@@.@@@@eeeee",
"eeeeeeeoOXOO.OXXX =; 3q993333=OO. X***=111-1-111;11-&X&&.O .w0055555.#5......@@@@@@@@@.@@@weeeee",
"eeeeeeee.OXOO.OXX.*OO 333333=&9333331*=OXXXX-;;O2111*XO&OXOO85555555.@5oo..@@@@@@@@@@@@@@@weeeee",
"eeeeeeeeeO&XOOO*.&OOOOO33333;333993333=*&O OXXX12111=XO*&XOO85555555.@5oo.@@@@@@@@@@@@@@@@weeeee",
"eeeeeeeee.O*OO.O&OOXOOOX*333=33333339;=*O *&&&1121111&X&*XXO5##85555.@5oo.@@@@@@@@@@@:#@@@eeeeee",
"eeeeeeeeee:OO*&O6=OOO&OOOX33=33333333;;&&11;;O*12111-=X&*OXOOOX85555.oooo@@@@@@@@@#66@:@#@eeeeee",
"eeeeeeeeeee.OOO .O9OO&&O&O.###=;33333=*23333=&.111111;OX**..OO.85555o@@@@@@@@@@@66666.##6@eeeeee",
"eeeeeeeeeeeeXO. XXO6OO&OOX& ####o@=11O*3333=*&O111111;*X**X...o85555@@@@@@@@@@:666666@666@eeeeee",
"eeeeeeeeeeee O  OXXO68OOX&. o#o###o##@9433;=*&O;12211;=.**XOOoo@@oo@@@@@@@@@@66666666@666@eeeeee",
"eeeeeeeeeeeeeO   OOX.O9&X  ..OO.:##.#@333;*;*&O&121111;=&XO&Ooooo6#@:::::::0999666666:666:eeeeee",
"eeeeeeeeeeeeeO.OX &OO O=  O.OOOO.5@@.o333;===&&O111111;=XO**Ooooo66@:2:::::999999990:688#eeeeeee",
"eeeeeeeeeeeeeO6XXXOOO.O .OXOO9:XX :@@@333==*=&9e111111;=&***=&.o@66644948::239999999@988#eeeeeee",
"eeeeeeeeeeeeee.X8&OOOO .OXOOOOO=XXXooX333=O;Xeee&112111=X&*=111*o669389  9:099.3;-99@666:eeeeeee",
"eeeeeeeeeeeeeew.OOOO.O ...OO  OOOXX#o.333=&&eeeeO1121111X*&=111&.66989.8@969o.43;;o9@666#eeeeeee",
"eeeeeeeeeeeeeeee  &8OO  .&O ##XOOXX:X 333=*#eeeeO1111111X&*&111O.68980 99 :39433;;;8@666:eeeeeee",
"eeeeeeeeeeeeeeeeee8.OX...OO#  #.O .# O333&qeeeeeeO11111O&O&&=-*..66925  398=93;;;;*6@66#eeeeeeee",
"eeeeeeeeeeeeeeeeeeee ....OO##.#  ..  O;3OeeeeeeeeO;;O O&.XXO*&X..#:9998992.X..-;;;8##66#eeeeeeee",
"eeeeeeeeeeeeeeeeeeee#@@. OOO@#  ..@ .. .eeeeeeeeee*21111;...X...@#######:68999.   9@:66#eeeeeeee",
"eeeeeeeeeeeeeeeeeeee,.@@@.OOO&O. . .. +.eeeeeeeeee120411*;O...o###:::::o:::#:#####:@:66#eeeeeeee",
"eeeeeeeeeeeeeeeeeeee@4@@@@.OOO&. ..  @+.eeeeeeeeee*12221;1&;.@:::#####5@##:@#:5#:::@866#eeeeeeee",
"eeeeeeeeeeeeeeeeeeee+=4=....... ..+++++.eeeeeeeee*11111221111&:::::5::#55::@::::5:5 :6#8eeeeeeee",
"eeeeeeeeeeeeeeeeeeee6 ===2=<==,++++ +++0eeeeeeeee*111111221111O:#55555@:55#:5::::5o :6@eeeeeeeee",
"eeeeeeeeeeeeeeeeeeeee#==========+...++#eeeeeeeeee*111111224211*:@55555@555::5:555:o.@6#eeeeeeeee",
"eeeeeeeeeeeeeeeeeeeeee+========,5##e.eeeeeeeeeeee*&*111111111;&#5555555555#555555:oo@6:eeeeeeeee",
"eeeeeeeeeeeeeeeeeeeeeee@++=====@###eeeeeeeeeeeeeeeee&***1111;*Xo:555558555#5555555o@@#8eeeeeeeee",
"eeeeeeeeeeeeeeeeeeeeeeeeeeewwqqweeeeeeeeeeeeeeeeeeeeeeee&***60e@55550#055:5555555@.@@@eeeeeeeeee",
"eeeeeeeeeeeeeeeeeeeeeeeeeeeeeeeeeeeeeeeeeeeeeeeeeeeeeeeeeeeeeee#@@@@@o5::::558555@e@ooeeeeeeeeee",
"eeeeeeeeeeeeeeeeeeeeeeeeeeeeeeeeeeeeeeeeeeeeeeeeeeeeeeeeeeeeeeeeeeeeeeo@@:::::::5oeeeeeeeeeeeeee",
"eeeeeeeeeeeeeeeeeeeeeeeeeeeeeeeeeeeeeeeeeeeeeeeeeeeeeeeeeeeeeeeeeeeeeeeeeeeeeeeeeeeeeeeeeeeeeeee",
"eeeeeeeeeeeeeeeeeeeeeeeeeeeeeeeeeeeeeeeeeeeeeeeeeeeeeeeeeeeeeeeeeeeeeeeeeeeeeeeeeeeeeeeeeeeeeeee",
"eeeeeeeeeeeeeeeeeeeeeeeeeeeeeeeeeeeeeeeeeeeeeeeeeeeeeeeeeeeeeeeeeeeeeeeeeeeeeeeeeeeeeeeeeeeeeeee",
"eeeeeeeeeeeeeeeeeeeeeeeeeeeeeeeeeeeeeeeeeeeeeeeeeeeeeeeeeeeeeeeeeeeeeeeeeeeeeeeeeeeeeeeeeeeeeeee",
"eeeeeeeeeeeeeeeeeeeeeeeeeeeeeeeeeeeeeeeeeeeeeeeeeeeeeeeeeeeeeeeeeeeeeeeeeeeeeeeeeeeeeeeeeeeeeeee"
};
